report_00007_2020-12-11T15:55:29.892Z/cumulative-layout-shift/comparison/sorted/5_vs_6.svg

<svg width="640" height="500" xmlns="http://www.w3.org/2000/svg" xmlns:xlink="http://www.w3.org/1999/xlink"><path fill="#fff" d="M0 0h640v500H0z"/><defs><path id="d" stroke-width=".222" stroke="currentColor" d="M-1-1h2v2h-2z"/><path id="b" stroke-width=".222" stroke="currentColor" d="M0-1.33l-1.33 2h2.66z"/><path id="f" stroke-width=".222" stroke="currentColor" d="M0 1.33L1.265.411.782-1.067l-1.564-.009-.483 1.487z"/><use xlink:href="#b" id="c" stroke="currentColor" transform="rotate(180)"/><use xlink:href="#d" id="e" stroke="currentColor" transform="rotate(45)"/><circle id="a" stroke-width=".222" stroke="currentColor" cx="0" cy="0" r="1"/></defs><g fill="none" color="#000" stroke="currentColor"><path stroke="#000" d="M53.9 338.8h9m552.1 0h-9"/><text transform="translate(45.6 342.7)" stroke="none" fill="#000" font-family="Arial" font-size="12" text-anchor="end"><tspan>0.2</tspan></text></g><g fill="none" color="#000" stroke="currentColor"><path stroke="#000" d="M53.9 271.3h9m552.1 0h-9"/><text transform="translate(45.6 275.2)" stroke="none" fill="#000" font-family="Arial" font-size="12" text-anchor="end"><tspan>0.4</tspan></text></g><g fill="none" color="#000" stroke="currentColor"><path stroke="#000" d="M53.9 203.8h9m552.1 0h-9"/><text transform="translate(45.6 207.7)" stroke="none" fill="#000" font-family="Arial" font-size="12" text-anchor="end"><tspan>0.6</tspan></text></g><g fill="none" color="#000" stroke="currentColor"><path stroke="#000" d="M53.9 136.4h9m552.1 0h-9"/><text transform="translate(45.6 140.3)" stroke="none" fill="#000" font-family="Arial" font-size="12" text-anchor="end"><tspan>0.8</tspan></text></g><g fill="none" color="#000" stroke="currentColor"><path stroke="#000" d="M53.9 68.9h9m552.1 0h-9"/><text transform="translate(45.6 72.8)" stroke="none" fill="#000" font-family="Arial" font-size="12" text-anchor="end"><tspan>1</tspan></text></g><g fill="none" color="#000" stroke="currentColor"><path stroke="#000" d="M53.9 392v-9m0-364.9v9"/><text transform="translate(53.9 413.9)" stroke="none" fill="#000" font-family="Arial" font-size="12" text-anchor="middle"><tspan>0</tspan></text></g><g fill="none" color="#000" stroke="currentColor"><path stroke="#000" d="M110.6 392v-9m0-364.9v9"/><text transform="translate(110.6 413.9)" stroke="none" fill="#000" font-family="Arial" font-size="12" text-anchor="middle"><tspan>10</tspan></text></g><g fill="none" color="#000" stroke="currentColor"><path stroke="#000" d="M167.3 392v-9m0-364.9v9"/><text transform="translate(167.3 413.9)" stroke="none" fill="#000" font-family="Arial" font-size="12" text-anchor="middle"><tspan>20</tspan></text></g><g fill="none" color="#000" stroke="currentColor"><path stroke="#000" d="M223.9 392v-9m0-364.9v9"/><text transform="translate(223.9 413.9)" stroke="none" fill="#000" font-family="Arial" font-size="12" text-anchor="middle"><tspan>30</tspan></text></g><g fill="none" color="#000" stroke="currentColor"><path stroke="#000" d="M280.6 392v-9m0-364.9v9"/><text transform="translate(280.6 413.9)" stroke="none" fill="#000" font-family="Arial" font-size="12" text-anchor="middle"><tspan>40</tspan></text></g><g fill="none" color="#000" stroke="currentColor"><path stroke="#000" d="M337.3 392v-9m0-364.9v9"/><text transform="translate(337.3 413.9)" stroke="none" fill="#000" font-family="Arial" font-size="12" text-anchor="middle"><tspan>50</tspan></text></g><g fill="none" color="#000" stroke="currentColor"><path stroke="#000" d="M394 392v-9m0-364.9v9"/><text transform="translate(394 413.9)" stroke="none" fill="#000" font-family="Arial" font-size="12" text-anchor="middle"><tspan>60</tspan></text></g><g fill="none" color="#000" stroke="currentColor"><path stroke="#000" d="M450.6 392v-9m0-364.9v9"/><text transform="translate(450.6 413.9)" stroke="none" fill="#000" font-family="Arial" font-size="12" text-anchor="middle"><tspan>70</tspan></text></g><g fill="none" color="#000" stroke="currentColor"><path stroke="#000" d="M507.3 392v-9m0-364.9v9"/><text transform="translate(507.3 413.9)" stroke="none" fill="#000" font-family="Arial" font-size="12" text-anchor="middle"><tspan>80</tspan></text></g><g fill="none" color="#000" stroke="currentColor"><path stroke="#000" d="M564 392v-9m0-364.9v9"/><text transform="translate(564 413.9)" stroke="none" fill="#000" font-family="Arial" font-size="12" text-anchor="middle"><tspan>90</tspan></text></g><path stroke="#000" d="M53.9 18.1V392H615V18.1H53.9z" fill="none" color="#000"/><text transform="translate(433.7 431.9)" stroke="none" fill="#000" font-family="Arial" font-size="12" text-anchor="end" color="#000"><tspan>pages+cached+noexternal</tspan></text><path stroke="#9400D3" d="M442 428h42.2M53.9 374.6H99.2l5.7-28.8h34l5.7-3.8H291.9l5.7-6.4H416.6l5.7-3.8H484.6l5.7-16 5.7-16.6h28.3l5.7-21.1H592.3L598 25.3h17" fill="none" color="#000"/><text transform="translate(433.7 449.9)" stroke="none" fill="#000" font-family="Arial" font-size="12" text-anchor="end" color="#000"><tspan>pages+cached+noexternal+nofonts</tspan></text><path stroke="#009E73" d="M442 446h42.2M53.9 384.8H229.6l5.7-10.2h5.6l5.7-28.8H405.3l5.7-3.8H535.7l5.6-6.4h17l5.7-3.8h17l5.7-41.5H615" fill="none" color="#000"/><text transform="translate(433.7 467.9)" stroke="none" fill="#000" font-family="Arial" font-size="12" text-anchor="end" color="#000"><tspan>score p10=0.1</tspan></text><path stroke="#56B4E9" d="M442 464h42.2M53.9 372.6H615" fill="none" color="#000"/><g><text transform="translate(433.7 485.9)" stroke="none" fill="#000" font-family="Arial" font-size="12" text-anchor="end" color="#000"><tspan>score median=0.25</tspan></text><path stroke="#E69F00" d="M442 482h42.2M53.9 321.9H615" fill="none" color="#000"/></g><g fill="none" color="#000" stroke="currentColor"><path stroke="#000" d="M53.9 18.1V392H615V18.1H53.9z"/></g></svg>

<?xml version="1.0" encoding="utf-8"  standalone="no"?>
<svg 
 width="640" height="500"
 viewBox="0 0 640 500"
 xmlns="http://www.w3.org/2000/svg"
 xmlns:xlink="http://www.w3.org/1999/xlink"
>

<title>Gnuplot</title>
<desc>Produced by GNUPLOT 5.4 patchlevel 0 </desc>

<g id="gnuplot_canvas">

<rect x="0" y="0" width="640" height="500" fill="#ffffff"/>
<defs>

	<circle id='gpDot' r='0.5' stroke-width='0.5' stroke='currentColor'/>
	<path id='gpPt0' stroke-width='0.222' stroke='currentColor' d='M-1,0 h2 M0,-1 v2'/>
	<path id='gpPt1' stroke-width='0.222' stroke='currentColor' d='M-1,-1 L1,1 M1,-1 L-1,1'/>
	<path id='gpPt2' stroke-width='0.222' stroke='currentColor' d='M-1,0 L1,0 M0,-1 L0,1 M-1,-1 L1,1 M-1,1 L1,-1'/>
	<rect id='gpPt3' stroke-width='0.222' stroke='currentColor' x='-1' y='-1' width='2' height='2'/>
	<rect id='gpPt4' stroke-width='0.222' stroke='currentColor' fill='currentColor' x='-1' y='-1' width='2' height='2'/>
	<circle id='gpPt5' stroke-width='0.222' stroke='currentColor' cx='0' cy='0' r='1'/>
	<use xlink:href='#gpPt5' id='gpPt6' fill='currentColor' stroke='none'/>
	<path id='gpPt7' stroke-width='0.222' stroke='currentColor' d='M0,-1.33 L-1.33,0.67 L1.33,0.67 z'/>
	<use xlink:href='#gpPt7' id='gpPt8' fill='currentColor' stroke='none'/>
	<use xlink:href='#gpPt7' id='gpPt9' stroke='currentColor' transform='rotate(180)'/>
	<use xlink:href='#gpPt9' id='gpPt10' fill='currentColor' stroke='none'/>
	<use xlink:href='#gpPt3' id='gpPt11' stroke='currentColor' transform='rotate(45)'/>
	<use xlink:href='#gpPt11' id='gpPt12' fill='currentColor' stroke='none'/>
	<path id='gpPt13' stroke-width='0.222' stroke='currentColor' d='M0,1.330 L1.265,0.411 L0.782,-1.067 L-0.782,-1.076 L-1.265,0.411 z'/>
	<use xlink:href='#gpPt13' id='gpPt14' fill='currentColor' stroke='none'/>
	<filter id='textbox' filterUnits='objectBoundingBox' x='0' y='0' height='1' width='1'>
	  <feFlood flood-color='#FFFFFF' flood-opacity='1' result='bgnd'/>
	  <feComposite in='SourceGraphic' in2='bgnd' operator='atop'/>
	</filter>
	<filter id='greybox' filterUnits='objectBoundingBox' x='0' y='0' height='1' width='1'>
	  <feFlood flood-color='lightgrey' flood-opacity='1' result='grey'/>
	  <feComposite in='SourceGraphic' in2='grey' operator='atop'/>
	</filter>
</defs>
<g fill="none" color="#FFFFFF" stroke="black" stroke-width="1.00" stroke-linecap="butt" stroke-linejoin="miter">
</g>
<g fill="none" color="black" stroke="currentColor" stroke-width="1.00" stroke-linecap="butt" stroke-linejoin="miter">
	<path stroke='black'  d='M53.9,338.8 L62.9,338.8 M615.0,338.8 L606.0,338.8  '/>	<g transform="translate(45.6,342.7)" stroke="none" fill="black" font-family="Arial" font-size="12.00"  text-anchor="end">
		<text><tspan font-family="Arial" > 0.2</tspan></text>
	</g>
</g>
<g fill="none" color="black" stroke="currentColor" stroke-width="1.00" stroke-linecap="butt" stroke-linejoin="miter">
	<path stroke='black'  d='M53.9,271.3 L62.9,271.3 M615.0,271.3 L606.0,271.3  '/>	<g transform="translate(45.6,275.2)" stroke="none" fill="black" font-family="Arial" font-size="12.00"  text-anchor="end">
		<text><tspan font-family="Arial" > 0.4</tspan></text>
	</g>
</g>
<g fill="none" color="black" stroke="currentColor" stroke-width="1.00" stroke-linecap="butt" stroke-linejoin="miter">
	<path stroke='black'  d='M53.9,203.8 L62.9,203.8 M615.0,203.8 L606.0,203.8  '/>	<g transform="translate(45.6,207.7)" stroke="none" fill="black" font-family="Arial" font-size="12.00"  text-anchor="end">
		<text><tspan font-family="Arial" > 0.6</tspan></text>
	</g>
</g>
<g fill="none" color="black" stroke="currentColor" stroke-width="1.00" stroke-linecap="butt" stroke-linejoin="miter">
	<path stroke='black'  d='M53.9,136.4 L62.9,136.4 M615.0,136.4 L606.0,136.4  '/>	<g transform="translate(45.6,140.3)" stroke="none" fill="black" font-family="Arial" font-size="12.00"  text-anchor="end">
		<text><tspan font-family="Arial" > 0.8</tspan></text>
	</g>
</g>
<g fill="none" color="black" stroke="currentColor" stroke-width="1.00" stroke-linecap="butt" stroke-linejoin="miter">
	<path stroke='black'  d='M53.9,68.9 L62.9,68.9 M615.0,68.9 L606.0,68.9  '/>	<g transform="translate(45.6,72.8)" stroke="none" fill="black" font-family="Arial" font-size="12.00"  text-anchor="end">
		<text><tspan font-family="Arial" > 1</tspan></text>
	</g>
</g>
<g fill="none" color="black" stroke="currentColor" stroke-width="1.00" stroke-linecap="butt" stroke-linejoin="miter">
	<path stroke='black'  d='M53.9,392.0 L53.9,383.0 M53.9,18.1 L53.9,27.1  '/>	<g transform="translate(53.9,413.9)" stroke="none" fill="black" font-family="Arial" font-size="12.00"  text-anchor="middle">
		<text><tspan font-family="Arial" > 0</tspan></text>
	</g>
</g>
<g fill="none" color="black" stroke="currentColor" stroke-width="1.00" stroke-linecap="butt" stroke-linejoin="miter">
	<path stroke='black'  d='M110.6,392.0 L110.6,383.0 M110.6,18.1 L110.6,27.1  '/>	<g transform="translate(110.6,413.9)" stroke="none" fill="black" font-family="Arial" font-size="12.00"  text-anchor="middle">
		<text><tspan font-family="Arial" > 10</tspan></text>
	</g>
</g>
<g fill="none" color="black" stroke="currentColor" stroke-width="1.00" stroke-linecap="butt" stroke-linejoin="miter">
	<path stroke='black'  d='M167.3,392.0 L167.3,383.0 M167.3,18.1 L167.3,27.1  '/>	<g transform="translate(167.3,413.9)" stroke="none" fill="black" font-family="Arial" font-size="12.00"  text-anchor="middle">
		<text><tspan font-family="Arial" > 20</tspan></text>
	</g>
</g>
<g fill="none" color="black" stroke="currentColor" stroke-width="1.00" stroke-linecap="butt" stroke-linejoin="miter">
	<path stroke='black'  d='M223.9,392.0 L223.9,383.0 M223.9,18.1 L223.9,27.1  '/>	<g transform="translate(223.9,413.9)" stroke="none" fill="black" font-family="Arial" font-size="12.00"  text-anchor="middle">
		<text><tspan font-family="Arial" > 30</tspan></text>
	</g>
</g>
<g fill="none" color="black" stroke="currentColor" stroke-width="1.00" stroke-linecap="butt" stroke-linejoin="miter">
	<path stroke='black'  d='M280.6,392.0 L280.6,383.0 M280.6,18.1 L280.6,27.1  '/>	<g transform="translate(280.6,413.9)" stroke="none" fill="black" font-family="Arial" font-size="12.00"  text-anchor="middle">
		<text><tspan font-family="Arial" > 40</tspan></text>
	</g>
</g>
<g fill="none" color="black" stroke="currentColor" stroke-width="1.00" stroke-linecap="butt" stroke-linejoin="miter">
	<path stroke='black'  d='M337.3,392.0 L337.3,383.0 M337.3,18.1 L337.3,27.1  '/>	<g transform="translate(337.3,413.9)" stroke="none" fill="black" font-family="Arial" font-size="12.00"  text-anchor="middle">
		<text><tspan font-family="Arial" > 50</tspan></text>
	</g>
</g>
<g fill="none" color="black" stroke="currentColor" stroke-width="1.00" stroke-linecap="butt" stroke-linejoin="miter">
	<path stroke='black'  d='M394.0,392.0 L394.0,383.0 M394.0,18.1 L394.0,27.1  '/>	<g transform="translate(394.0,413.9)" stroke="none" fill="black" font-family="Arial" font-size="12.00"  text-anchor="middle">
		<text><tspan font-family="Arial" > 60</tspan></text>
	</g>
</g>
<g fill="none" color="black" stroke="currentColor" stroke-width="1.00" stroke-linecap="butt" stroke-linejoin="miter">
	<path stroke='black'  d='M450.6,392.0 L450.6,383.0 M450.6,18.1 L450.6,27.1  '/>	<g transform="translate(450.6,413.9)" stroke="none" fill="black" font-family="Arial" font-size="12.00"  text-anchor="middle">
		<text><tspan font-family="Arial" > 70</tspan></text>
	</g>
</g>
<g fill="none" color="black" stroke="currentColor" stroke-width="1.00" stroke-linecap="butt" stroke-linejoin="miter">
	<path stroke='black'  d='M507.3,392.0 L507.3,383.0 M507.3,18.1 L507.3,27.1  '/>	<g transform="translate(507.3,413.9)" stroke="none" fill="black" font-family="Arial" font-size="12.00"  text-anchor="middle">
		<text><tspan font-family="Arial" > 80</tspan></text>
	</g>
</g>
<g fill="none" color="black" stroke="currentColor" stroke-width="1.00" stroke-linecap="butt" stroke-linejoin="miter">
	<path stroke='black'  d='M564.0,392.0 L564.0,383.0 M564.0,18.1 L564.0,27.1  '/>	<g transform="translate(564.0,413.9)" stroke="none" fill="black" font-family="Arial" font-size="12.00"  text-anchor="middle">
		<text><tspan font-family="Arial" > 90</tspan></text>
	</g>
</g>
<g fill="none" color="black" stroke="currentColor" stroke-width="1.00" stroke-linecap="butt" stroke-linejoin="miter">
</g>
<g fill="none" color="black" stroke="currentColor" stroke-width="1.00" stroke-linecap="butt" stroke-linejoin="miter">
	<path stroke='black'  d='M53.9,18.1 L53.9,392.0 L615.0,392.0 L615.0,18.1 L53.9,18.1 Z  '/></g>
<g fill="none" color="black" stroke="currentColor" stroke-width="1.00" stroke-linecap="butt" stroke-linejoin="miter">
</g>
	<g id="gnuplot_plot_1" ><title>pages+cached+noexternal</title>
<g fill="none" color="black" stroke="currentColor" stroke-width="1.00" stroke-linecap="butt" stroke-linejoin="miter">
	<g transform="translate(433.7,431.9)" stroke="none" fill="black" font-family="Arial" font-size="12.00"  text-anchor="end">
		<text><tspan font-family="Arial" >pages+cached+noexternal</tspan></text>
	</g>
</g>
<g fill="none" color="black" stroke="currentColor" stroke-width="1.00" stroke-linecap="butt" stroke-linejoin="miter">
	<path stroke='rgb(148,   0, 211)'  d='M442.0,428.0 L484.2,428.0 M53.9,374.6 L59.6,374.6 L65.2,374.6 L70.9,374.6 L76.6,374.6 L82.2,374.6
		L87.9,374.6 L93.6,374.6 L99.2,374.6 L104.9,345.8 L110.6,345.8 L116.2,345.8 L121.9,345.8 L127.6,345.8
		L133.2,345.8 L138.9,345.8 L144.6,342.0 L150.3,342.0 L155.9,342.0 L161.6,342.0 L167.3,342.0 L172.9,342.0
		L178.6,342.0 L184.3,342.0 L189.9,342.0 L195.6,342.0 L201.3,342.0 L206.9,342.0 L212.6,342.0 L218.3,342.0
		L223.9,342.0 L229.6,342.0 L235.3,342.0 L240.9,342.0 L246.6,342.0 L252.3,342.0 L257.9,342.0 L263.6,342.0
		L269.3,342.0 L274.9,342.0 L280.6,342.0 L286.3,342.0 L291.9,342.0 L297.6,335.6 L303.3,335.6 L308.9,335.6
		L314.6,335.6 L320.3,335.6 L325.9,335.6 L331.6,335.6 L337.3,335.6 L343.0,335.6 L348.6,335.6 L354.3,335.6
		L360.0,335.6 L365.6,335.6 L371.3,335.6 L377.0,335.6 L382.6,335.6 L388.3,335.6 L394.0,335.6 L399.6,335.6
		L405.3,335.6 L411.0,335.6 L416.6,335.6 L422.3,331.8 L428.0,331.8 L433.6,331.8 L439.3,331.8 L445.0,331.8
		L450.6,331.8 L456.3,331.8 L462.0,331.8 L467.6,331.8 L473.3,331.8 L479.0,331.8 L484.6,331.8 L490.3,315.8
		L496.0,299.2 L501.6,299.2 L507.3,299.2 L513.0,299.2 L518.6,299.2 L524.3,299.2 L530.0,278.1 L535.7,278.1
		L541.3,278.1 L547.0,278.1 L552.7,278.1 L558.3,278.1 L564.0,278.1 L569.7,278.1 L575.3,278.1 L581.0,278.1
		L586.7,278.1 L592.3,278.1 L598.0,25.3 L603.7,25.3 L609.3,25.3 L615.0,25.3  '/></g>
	</g>
	<g id="gnuplot_plot_2" ><title>pages+cached+noexternal+nofonts</title>
<g fill="none" color="black" stroke="currentColor" stroke-width="1.00" stroke-linecap="butt" stroke-linejoin="miter">
	<g transform="translate(433.7,449.9)" stroke="none" fill="black" font-family="Arial" font-size="12.00"  text-anchor="end">
		<text><tspan font-family="Arial" >pages+cached+noexternal+nofonts</tspan></text>
	</g>
</g>
<g fill="none" color="black" stroke="currentColor" stroke-width="1.00" stroke-linecap="butt" stroke-linejoin="miter">
	<path stroke='rgb(  0, 158, 115)'  d='M442.0,446.0 L484.2,446.0 M53.9,384.8 L59.6,384.8 L65.2,384.8 L70.9,384.8 L76.6,384.8 L82.2,384.8
		L87.9,384.8 L93.6,384.8 L99.2,384.8 L104.9,384.8 L110.6,384.8 L116.2,384.8 L121.9,384.8 L127.6,384.8
		L133.2,384.8 L138.9,384.8 L144.6,384.8 L150.3,384.8 L155.9,384.8 L161.6,384.8 L167.3,384.8 L172.9,384.8
		L178.6,384.8 L184.3,384.8 L189.9,384.8 L195.6,384.8 L201.3,384.8 L206.9,384.8 L212.6,384.8 L218.3,384.8
		L223.9,384.8 L229.6,384.8 L235.3,374.6 L240.9,374.6 L246.6,345.8 L252.3,345.8 L257.9,345.8 L263.6,345.8
		L269.3,345.8 L274.9,345.8 L280.6,345.8 L286.3,345.8 L291.9,345.8 L297.6,345.8 L303.3,345.8 L308.9,345.8
		L314.6,345.8 L320.3,345.8 L325.9,345.8 L331.6,345.8 L337.3,345.8 L343.0,345.8 L348.6,345.8 L354.3,345.8
		L360.0,345.8 L365.6,345.8 L371.3,345.8 L377.0,345.8 L382.6,345.8 L388.3,345.8 L394.0,345.8 L399.6,345.8
		L405.3,345.8 L411.0,342.0 L416.6,342.0 L422.3,342.0 L428.0,342.0 L433.6,342.0 L439.3,342.0 L445.0,342.0
		L450.6,342.0 L456.3,342.0 L462.0,342.0 L467.6,342.0 L473.3,342.0 L479.0,342.0 L484.6,342.0 L490.3,342.0
		L496.0,342.0 L501.6,342.0 L507.3,342.0 L513.0,342.0 L518.6,342.0 L524.3,342.0 L530.0,342.0 L535.7,342.0
		L541.3,335.6 L547.0,335.6 L552.7,335.6 L558.3,335.6 L564.0,331.8 L569.7,331.8 L575.3,331.8 L581.0,331.8
		L586.7,290.3 L592.3,290.3 L598.0,290.3 L603.7,290.3 L609.3,290.3 L615.0,290.3  '/></g>
	</g>
	<g id="gnuplot_plot_3" ><title>score p10=0.1</title>
<g fill="none" color="black" stroke="currentColor" stroke-width="1.00" stroke-linecap="butt" stroke-linejoin="miter">
	<g transform="translate(433.7,467.9)" stroke="none" fill="black" font-family="Arial" font-size="12.00"  text-anchor="end">
		<text><tspan font-family="Arial" >score p10=0.1</tspan></text>
	</g>
</g>
<g fill="none" color="black" stroke="currentColor" stroke-width="1.00" stroke-linecap="butt" stroke-linejoin="miter">
	<path stroke='rgb( 86, 180, 233)'  d='M442.0,464.0 L484.2,464.0 M53.9,372.6 L59.6,372.6 L65.2,372.6 L70.9,372.6 L76.6,372.6 L82.2,372.6
		L87.9,372.6 L93.6,372.6 L99.2,372.6 L104.9,372.6 L110.6,372.6 L116.2,372.6 L121.9,372.6 L127.6,372.6
		L133.2,372.6 L138.9,372.6 L144.6,372.6 L150.3,372.6 L155.9,372.6 L161.6,372.6 L167.3,372.6 L172.9,372.6
		L178.6,372.6 L184.3,372.6 L189.9,372.6 L195.6,372.6 L201.3,372.6 L206.9,372.6 L212.6,372.6 L218.3,372.6
		L223.9,372.6 L229.6,372.6 L235.3,372.6 L240.9,372.6 L246.6,372.6 L252.3,372.6 L257.9,372.6 L263.6,372.6
		L269.3,372.6 L274.9,372.6 L280.6,372.6 L286.3,372.6 L291.9,372.6 L297.6,372.6 L303.3,372.6 L308.9,372.6
		L314.6,372.6 L320.3,372.6 L325.9,372.6 L331.6,372.6 L337.3,372.6 L343.0,372.6 L348.6,372.6 L354.3,372.6
		L360.0,372.6 L365.6,372.6 L371.3,372.6 L377.0,372.6 L382.6,372.6 L388.3,372.6 L394.0,372.6 L399.6,372.6
		L405.3,372.6 L411.0,372.6 L416.6,372.6 L422.3,372.6 L428.0,372.6 L433.6,372.6 L439.3,372.6 L445.0,372.6
		L450.6,372.6 L456.3,372.6 L462.0,372.6 L467.6,372.6 L473.3,372.6 L479.0,372.6 L484.6,372.6 L490.3,372.6
		L496.0,372.6 L501.6,372.6 L507.3,372.6 L513.0,372.6 L518.6,372.6 L524.3,372.6 L530.0,372.6 L535.7,372.6
		L541.3,372.6 L547.0,372.6 L552.7,372.6 L558.3,372.6 L564.0,372.6 L569.7,372.6 L575.3,372.6 L581.0,372.6
		L586.7,372.6 L592.3,372.6 L598.0,372.6 L603.7,372.6 L609.3,372.6 L615.0,372.6  '/></g>
	</g>
	<g id="gnuplot_plot_4" ><title>score median=0.25</title>
<g fill="none" color="black" stroke="currentColor" stroke-width="1.00" stroke-linecap="butt" stroke-linejoin="miter">
	<g transform="translate(433.7,485.9)" stroke="none" fill="black" font-family="Arial" font-size="12.00"  text-anchor="end">
		<text><tspan font-family="Arial" >score median=0.25</tspan></text>
	</g>
</g>
<g fill="none" color="black" stroke="currentColor" stroke-width="1.00" stroke-linecap="butt" stroke-linejoin="miter">
	<path stroke='rgb(230, 159,   0)'  d='M442.0,482.0 L484.2,482.0 M53.9,321.9 L59.6,321.9 L65.2,321.9 L70.9,321.9 L76.6,321.9 L82.2,321.9
		L87.9,321.9 L93.6,321.9 L99.2,321.9 L104.9,321.9 L110.6,321.9 L116.2,321.9 L121.9,321.9 L127.6,321.9
		L133.2,321.9 L138.9,321.9 L144.6,321.9 L150.3,321.9 L155.9,321.9 L161.6,321.9 L167.3,321.9 L172.9,321.9
		L178.6,321.9 L184.3,321.9 L189.9,321.9 L195.6,321.9 L201.3,321.9 L206.9,321.9 L212.6,321.9 L218.3,321.9
		L223.9,321.9 L229.6,321.9 L235.3,321.9 L240.9,321.9 L246.6,321.9 L252.3,321.9 L257.9,321.9 L263.6,321.9
		L269.3,321.9 L274.9,321.9 L280.6,321.9 L286.3,321.9 L291.9,321.9 L297.6,321.9 L303.3,321.9 L308.9,321.9
		L314.6,321.9 L320.3,321.9 L325.9,321.9 L331.6,321.9 L337.3,321.9 L343.0,321.9 L348.6,321.9 L354.3,321.9
		L360.0,321.9 L365.6,321.9 L371.3,321.9 L377.0,321.9 L382.6,321.9 L388.3,321.9 L394.0,321.9 L399.6,321.9
		L405.3,321.9 L411.0,321.9 L416.6,321.9 L422.3,321.9 L428.0,321.9 L433.6,321.9 L439.3,321.9 L445.0,321.9
		L450.6,321.9 L456.3,321.9 L462.0,321.9 L467.6,321.9 L473.3,321.9 L479.0,321.9 L484.6,321.9 L490.3,321.9
		L496.0,321.9 L501.6,321.9 L507.3,321.9 L513.0,321.9 L518.6,321.9 L524.3,321.9 L530.0,321.9 L535.7,321.9
		L541.3,321.9 L547.0,321.9 L552.7,321.9 L558.3,321.9 L564.0,321.9 L569.7,321.9 L575.3,321.9 L581.0,321.9
		L586.7,321.9 L592.3,321.9 L598.0,321.9 L603.7,321.9 L609.3,321.9 L615.0,321.9  '/></g>
	</g>
<g fill="none" color="#FFFFFF" stroke="rgb(230, 159,   0)" stroke-width="2.00" stroke-linecap="but
